packages/hms_room_kit/lib/src/assets/icons/wave_hand.svg

<svg width="64" height="64" viewBox="0 0 64 64" fill="none" xmlns="http://www.w3.org/2000/svg">
<g id="Coloured Icons/Hand" clip-path="url(#clip0_13507_6247)">
<path id="Vector" d="M9.19477 16.5745C9.20231 16.5689 9.20985 16.567 9.21739 16.5613L9.21645 16.5585L9.19477 16.5745Z" fill="#FFAB00"/>
<path id="Vector_2" d="M14.4086 13.7273C12.8831 12.2019 11.2455 12.4592 9.98211 13.7226L8.17002 36.9723C8.17002 37.1929 8.18983 37.4107 8.20208 37.6304L21.2449 24.5875C15.787 26.0121 17.3907 21.4555 15.4975 20.277C15.4985 20.2761 17.5896 16.9084 14.4086 13.7273Z" fill="#FFAB00"/>
<path id="Vector_3" d="M55.3123 28.2322C54.2705 27.1904 52.5829 27.1904 51.5411 28.2322L43.8327 35.9406L42.9756 34.912L55.7837 22.104C57.0857 20.8019 57.0857 18.6919 55.7837 17.3899C54.4817 16.0879 52.3717 16.0879 51.0697 17.3899L38.6878 29.7718L37.8307 28.7432L51.0697 15.5043C52.3717 14.2023 52.3717 12.0923 51.0697 10.7902C49.7676 9.48822 47.6576 9.48822 46.3556 10.7902L33.5419 23.604L32.6849 22.5754L42.4496 12.8107C43.6828 11.5775 43.9185 9.56742 42.8154 8.21732C41.5454 6.66451 39.2525 6.57966 37.8703 7.96182C37.6469 8.18526 8.20202 37.6301 8.20202 37.6301C8.35382 40.2332 9.44181 42.7015 11.2963 44.556L21.3712 54.6309C24.4956 57.7553 29.5604 57.7553 32.6849 54.6309L55.3123 32.0034C56.3541 30.9616 56.3541 29.274 55.3123 28.2322Z" fill="#FFAB00"/>
<path id="Vector_4" d="M38.8132 11.7329C39.5943 12.5139 40.8606 12.5139 41.6416 11.7329C42.4227 10.9518 42.4227 9.6855 41.6416 8.90445C40.8606 8.1234 39.5943 8.1234 38.8132 8.90445C38.0322 9.6855 38.0322 10.9518 38.8132 11.7329Z" fill="white"/>
<path id="Vector_5" d="M47.2984 14.561C48.0795 15.342 49.3458 15.342 50.1269 14.561C50.9079 13.78 50.9079 12.5136 50.1269 11.7326C49.3458 10.9515 48.0795 10.9515 47.2984 11.7326C46.5174 12.5136 46.5174 13.78 47.2984 14.561Z" fill="white"/>
<path id="Vector_6" d="M52.0125 21.1606C52.7936 21.9417 54.0599 21.9417 54.841 21.1606C55.622 20.3796 55.622 19.1132 54.841 18.3322C54.0599 17.5511 52.7936 17.5511 52.0125 18.3322C51.2315 19.1132 51.2315 20.3796 52.0125 21.1606Z" fill="white"/>
<path id="Vector_7" d="M52.4839 31.0609C53.0046 31.5815 53.8489 31.5815 54.3696 31.0609C54.8903 30.5402 54.8903 29.6959 54.3696 29.1752C53.8489 28.6545 53.0046 28.6545 52.4839 29.1752C51.9632 29.6959 51.9632 30.5402 52.4839 31.0609Z" fill="white"/>
</g>
<defs>
<clipPath id="clip0_13507_6247">
<rect width="64" height="64" fill="white"/>
</clipPath>
</defs>
</svg>

<svg xmlns="http://www.w3.org/2000/svg" width="64" height="64" fill="none" viewBox="0 0 64 64"><g clip-path="url(#a)"><path fill="#FFAB00" d="M9.195 16.575c.007-.006.015-.008.022-.014v-.003l-.022.017Zm5.214-2.848c-1.526-1.525-3.164-1.268-4.427-.004L8.17 36.973c0 .22.02.438.032.657l13.043-13.043c-5.458 1.425-3.854-3.131-5.748-4.31.002 0 2.093-3.369-1.088-6.55Z"/><path fill="#FFAB00" d="M55.312 28.232a2.666 2.666 0 0 0-3.77 0l-7.71 7.709-.856-1.029 12.808-12.808a3.333 3.333 0 1 0-4.714-4.714L38.688 29.772l-.857-1.029L51.07 15.504a3.333 3.333 0 1 0-4.714-4.714L33.542 23.604l-.857-1.029 9.765-9.764c1.233-1.233 1.468-3.244.365-4.594a3.334 3.334 0 0 0-4.945-.255L8.202 37.63a10.661 10.661 0 0 0 3.094 6.926l10.075 10.075a8 8 0 0 0 11.314 0l22.627-22.628a2.666 2.666 0 0 0 0-3.77Z"/><path fill="#fff" d="M38.813 11.733a2 2 0 1 0 2.829-2.829 2 2 0 0 0-2.829 2.829Zm8.485 2.828a2 2 0 1 0 2.829-2.829 2 2 0 0 0-2.829 2.829Zm4.715 6.599a2 2 0 1 0 2.828-2.828 2 2 0 0 0-2.828 2.829Zm.471 9.9a1.334 1.334 0 1 0 1.886-1.885 1.334 1.334 0 0 0-1.886 1.886Z"/></g><defs><clipPath id="a"><path fill="#fff" d="M0 0h64v64H0z"/></clipPath></defs></svg>
